artwork/resources/intui/icons/shell/filetree/manifest-file.svg

<svg width="16" height="16" viewBox="0 0 16 16" fill="none" xmlns="http://www.w3.org/2000/svg">
<g clip-path="url(#clip0_3_832)">
<rect x="2.5" y="2.5" width="11" height="11" rx="1.5" fill="#F2FCF7" stroke="#3DDC84"/>
<path d="M5.64509 11H4.54709V4.70001H5.97359L7.90409 9.24951L8.01209 9.60051L8.11559 9.24951L10.0056 4.70001H11.4501V11H10.3476V6.51801L10.3611 6.27951L8.40359 11H7.58009L5.63159 6.31101L5.64509 6.51801V11Z" fill="#3DDC84"/>
</g>
<defs>
<clipPath id="clip0_3_832">
<rect width="16" height="16" fill="white"/>
</clipPath>
</defs>
</svg>

<svg width="16" height="16" viewBox="0 0 16 16" fill="none" xmlns="http://www.w3.org/2000/svg"><g clip-path="url(#clip0_3_832)"><rect x="2.5" y="2.5" width="11" height="11" rx="1.5" fill="#F2FCF7" stroke="#3DDC84"/><path d="M5.645 11H4.547V4.7h1.427l1.93 4.55.108.35.104-.35 1.89-4.55h1.444V11h-1.102V6.518l.013-.238L8.404 11H7.58L5.632 6.311l.013.207V11z" fill="#3DDC84"/></g><defs><clipPath id="clip0_3_832"><path fill="#fff" d="M0 0h16v16H0z"/></clipPath></defs></svg>
